// @title W01-02
// @license CC BY-NC-SA 4.0 https://creativecommons.org/licenses/by-nc-sa/4.0/
// @by vigliensoni
// @date Jan 2, 2026



// MY FIRST BEAT 
sound("<{[bd bd] [bd bd], [~ lt] [lt lt] }>*4").bank("compurhythm8000")

// my notes added 

n("0*2 1 2 3 4 5 6 7")
  .s("darbuka")// sound of the notes 
  .gain(rand.range(0.25,0.75)) // gain (aka volume) is random 
  .cutoff(rand.range(0, 20000)) // how muffled it is? between 0 and 20000 