// @title W01-03
// @license CC BY-NC-SA 4.0 https://creativecommons.org/licenses/by-nc-sa/4.0/
// @by vigliensoni
// @date Jan 3, 2026

// 03

  // SKYLAS LATE NIGHT JAMS 

// (beat)
setcps(130/60/4)
$: n("[2]!2 4 [2]!3 4 2?").sound("jazz")
$: s("1 [~ 1] [1]*2 [~ 1]").bank("rolandmc303_bd").gain(0.75)

