
// TIBETAN CHANTS x TECHNO

// set cpm
setcpm(60)

// sample
samples({
  chant: 'https://cdn.freesound.org/previews/103/103452_1015240-lq.mp3', 
})

$: s("chant/7").begin(0).end(10).cut(7).hpf(300).gain("0.4")

// drum
$: s("<rolandcompurhythm78_bd>*2")
$: s("<[~ 0]!6 [~ 0] [0 0]>").sound("r88_hh")

// melody
$: note("<a a a [a a] e [e e] e [e e]>").sound("xylophone_medium_pp")
